X: 35353
T: Rosie Finn's Favourite
R: slide
M: 12/8
K: Gmajor
|:G2B d2g b2g d2B|cBc agf g2d B2A|
G2B d2g b2g d2B|cBc agf g3 g3:|
|:g2b c'2b a2e e2g|f2a bag f2d d3|
g2b c'2b a2e e2g|fef def g3 g3:|

